icons/file-list-3-fill.svg

<svg xmlns="http://www.w3.org/2000/svg" width="24" height="24" fill="none"><g clip-path="url(#a)"><g><path fill="#121212" d="M19 22H5C4.20435 22 3.44129 21.6839 2.87868 21.1213C2.31607 20.5587 2 19.7956 2 19V3C2 2.73478 2.10536 2.48043 2.29289 2.29289C2.48043 2.10536 2.73478 2 3 2H17C17.2652 2 17.5196 2.10536 17.7071 2.29289C17.8946 2.48043 18 2.73478 18 3V15H22V19C22 19.7956 21.6839 20.5587 21.1213 21.1213C20.5587 21.6839 19.7956 22 19 22ZM18 17V19C18 19.2652 18.1054 19.5196 18.2929 19.7071C18.4804 19.8946 18.7348 20 19 20C19.2652 20 19.5196 19.8946 19.7071 19.7071C19.8946 19.5196 20 19.2652 20 19V17H18ZM6 7V9H14V7H6ZM6 11V13H14V11H6ZM6 15V17H11V15H6Z"/></g></g><defs><clipPath id="a"><rect width="24" height="24" fill="white"/></clipPath></defs></svg>

<svg width="24" height="24" fill="none" xmlns="http://www.w3.org/2000/svg"><g clip-path="url(#a)"><path d="M19 22H5a3 3 0 0 1-3-3V3a1 1 0 0 1 1-1h14a1 1 0 0 1 1 1v12h4v4a3 3 0 0 1-3 3Zm-1-5v2a1 1 0 0 0 2 0v-2h-2ZM6 7v2h8V7H6Zm0 4v2h8v-2H6Zm0 4v2h5v-2H6Z" /></g><defs><clipPath id="a"><path fill="#fff" d="M0 0h24v24H0z"/></clipPath></defs></svg>
